svgs/substratum_lite.svg

<svg width="192" height="192" viewBox="0 0 192 192" fill="none" xmlns="http://www.w3.org/2000/svg">
<path d="M30 38C30 33.5817 33.5817 30 38 30H74C78.4183 30 82 33.5817 82 38V136C82 150.359 70.3594 162 56 162V162C41.6406 162 30 150.359 30 136V38Z" stroke="black" stroke-width="12" stroke-linejoin="round"/>
<circle cx="56" cy="136" r="9" fill="black"/>
<path fill-rule="evenodd" clip-rule="evenodd" d="M36 110.745L33.3726 113.373C20.8758 125.869 20.8758 146.131 33.3726 158.627C45.8694 171.124 66.1306 171.124 78.6274 158.627L147.924 89.3309C153.391 83.8636 153.391 74.9993 147.924 69.5319L122.468 44.0761C117.001 38.6088 108.136 38.6088 102.669 44.0761L76 70.7451V87.7157L111.154 52.5614C111.935 51.7803 113.202 51.7803 113.983 52.5614L139.439 78.0172C140.22 78.7983 140.22 80.0646 139.439 80.8456L70.1678 150.116C70.0861 150.198 70.0037 150.28 69.9206 150.36C66.3202 153.851 61.411 156 56 156C53.2692 156 50.6662 155.453 48.2948 154.462C46.0447 153.524 43.9312 152.157 42.0794 150.36C41.9325 150.218 41.7877 150.073 41.6452 149.926C38.1511 146.325 36 141.414 36 136V110.745Z" fill="black"/>
<path fill-rule="evenodd" clip-rule="evenodd" d="M36 111.019C28.6843 116.883 24 125.894 24 136C24 153.673 38.3269 168 56 168L154 168C161.732 168 168 161.732 168 154V118C168 110.268 161.732 104 154 104L119.066 104L108.424 116L154 116C155.105 116 156 116.895 156 118V154C156 155.105 155.105 156 154 156L56.0125 156C56.0083 156 56.0042 156 56 156C44.9543 156 36 147.046 36 136C36 135.998 36 135.996 36 135.994V111.019ZM76 116H82.5V107L82.6942 104H76V116Z" fill="black"/>
</svg>

<svg xmlns="http://www.w3.org/2000/svg" width="192" height="192" fill="none" xmlns:v="https://vecta.io/nano"><path d="M30 38a8 8 0 0 1 8-8h36a8 8 0 0 1 8 8v98c0 14.359-11.641 26-26 26h0c-14.359 0-26-11.641-26-26V38z" stroke="#000" stroke-width="12" stroke-linejoin="round"/><g fill="#000"><circle cx="56" cy="136" r="9"/><g fill-rule="evenodd"><path d="M36 110.745l-2.627 2.628c-12.497 12.496-12.497 32.758 0 45.254s32.758 12.497 45.255 0l69.297-69.296c5.467-5.467 5.467-14.332 0-19.799l-25.456-25.456c-5.467-5.467-14.332-5.467-19.799 0L76 70.745v16.971l35.154-35.154a2 2 0 0 1 2.829 0l25.456 25.456a2 2 0 0 1 0 2.828l-69.271 69.27-.247.244C66.32 153.851 61.411 156 56 156c-2.731 0-5.334-.547-7.705-1.538-2.25-.938-4.364-2.305-6.215-4.102a18.9 18.9 0 0 1-.434-.434C38.151 146.325 36 141.414 36 136v-25.255z"/><path d="M36 111.019c-7.316 5.864-12 14.875-12 24.981 0 17.673 14.327 32 32 32h98c7.732 0 14-6.268 14-14v-36c0-7.732-6.268-14-14-14h-34.934l-10.642 12H154a2 2 0 0 1 2 2v36a2 2 0 0 1-2 2H56.013C44.954 156 36 147.046 36 136v-24.981zM76 116h6.5v-9l.194-3H76v12z"/></g></g></svg>
